X: 8
T: Father O'Grady's Visit To Bocca
C: Josie McDermott
Z: Erik-Fiddler
S: https://thesession.org/tunes/180#setting48760
R: reel
M: 4/4
L: 1/8
K: Dmaj
|:FG|Adde fded|ABAG EFDe|fded cAAG|EFGE D2 FG|
Adde fded|ABAG E/F/G Ad|fded cA A/A/A|EFGE D2:|
|:FG|Adde fage|dfed cAAF|[G3G,3] A GE E/E/E|edcA GE E/E/E|
Adde f/g/a ge|dfed cAce|~f3 d gfeg|f/g/a ge d2:|

